**kern
*clefG2
*k[]
*M3/4
=1
*^
(2b#X	2.d-X
4cc#X)	.
=2||	=2||
(2cc#X	2.d-X
4ddn)	.
=3||	=3||
(2ddn	2.d-X
4ee-X)	.
=4	=4
(2ddn	2.d-X
4een)	.
=5	=5
[2ddn	2r
=6	=6
2dd]	1d-X 1g 1b-X
2ee-X	.
=7	=7
(2.ddn	4r
.	2g 2b-X
*	*^
.	.	2d-X\
4een)	4g 4b-	.
*	*v	*v
=8	=8
4ff	4B 4f 4a-X
=9||	=9||
(2g	2.f
4a-X)	.
!!linebreak:original
=10	=10
(2g	2.f
4an)	.
!!linebreak:original
==11	==11
(2f-X	2.d#X
4e-X)	.
=12||	=12||
(2ee-X	2.d#X
4ddn)	.
=13||	=13||
(2ddn	2.d#X
4cc#X)	.
=14	=14
(2ddn	2.d#X
4ccn)	.
=15	=15
[1ddn	1r
=16	=16
2dd]	1d#X 1f#X
2ccn	.
*v	*v
=17
1e 1g 1b
=18||
*^
(2ff	2.g
4ee)	.
=19	=19
(2ff	2.g
4ee-X)	.
!!linebreak:original
==20	==20
(2ee#X	2.a-X
4ff#X)	.
=21	=21
(2b#X	2.a-X
4cc#X)	.
=22||	=22||
*	*^
(2.dd#X	2a	(2fn\
.	2g#X	2e\)
4ee)	.	.
*	*v	*v
=23	=23
(2dd#X	2.B-X 2.g
4ee)	.
=24	=24
(2dd#X	2.a-X
4ee)	.
=25	=25
*	*^
(2dd#X	2.cc	(2A-X\ 2f#X
4ee)	.	4G\) 4g
*	*v	*v
=26	=26
(2ee#X	2.e-X 2.a 2.cc
4ff#X)	.
=27||	=27||
(2b	2.c
4a)	.
=28	=28
(2dd#X	2.a
4ee)	.
!!linebreak:original
=29	=29
(2dd#X	2.g
4ee)	.
=30	=30
(2g#X	2.f
4a)	.
!!linebreak:original
==31	==31
(2a-X	2.e#X
4g)	.
=32	=32
(2aa-X	2.b#X
4gg)	.
=33||	=33||
(2.ffn	(2d#X 2a 2cc
.	2e) 2g#X 2b
4ee)	.
=34	=34
*	*^
2.cc	(2b-X	2.d#X\
.	4a)	.
*	*v	*v
=35	=35
2a-X	2.d#X
4g	.
=36	=36
(2.dd#X	(2a-X 2cc
.	2g) 2cc
4ee)	.
=37	=37
(2ee-X	2.e#X
4dd)	.
=38||	=38||
(2cc	2.b
4dd)	.
=39	=39
(2cc	2.f#X
4b)	.
!!linebreak:original
=40	=40
(2cc	2.g#X
4b)	.
=41	=41
(2ff	2.g#X
4ee)	.
*v	*v
==
*-
!!!system-decoration: [(s1
